!!!OTL: Die Schlangenkoechin 'Wo bist du gestern Ab'nd gewes'n,
!!!ARE: Europa, Mitteleuropa, Deutschland (), Brandenburg
!!!YOR: 4, S. 206
!!    1853 aufgezeichnet
!!!SCT: Q0079E
!!!YEM: Copyright 1995, estate of Helmut Schaffrath.
**kern
*ICvox
*Ivox
*M2/4
*k[f#c#]
*D:
{8A
=1
8d
8d
8f#
8f#
=2
8a
8a
8a}
{8a
=3
8b
8b
8dd
8b
=4
4a
8r}
{8f#
=5
8.g
16a
8g
8e
=6
8.f#
16a
8f#}
{8d
=7
8.e
16f#
8e
8d
=8
4a
8f#}
{8d
=9
8a
8g
8f#
16a
16f#
=10
4e
8r}
==
!!!AGN: Ballade, Mord; Reigen - Tanz, antiphonal
!! Zweite, vierte und fuenfte Zeile = Refrain.
!!!ONB: ESAC (Essen Associative Code) Database: BALLADE
!!!AMT: simple duple
!!!AIN: vox
!!!EED: Helmut Schaffrath
!!!EEV: 1.0
*-
